Hatter-kde/actions/16/shapes.svg

<?xml version="1.0" encoding="UTF-8"?>
<svg viewBox="0 0 16 16" xmlns="http://www.w3.org/2000/svg">
 <defs id="defs3051">
  <style id="current-color-scheme" type="text/css">.ColorScheme-Text {
        color:#363636;
      }</style>
 </defs>
 <path class="ColorScheme-Text" d="m4.5 2a2.5 2.5 0 0 0-2.5 2.5 2.5 2.5 0 0 0 2.5 2.5 2.5 2.5 0 0 0 2.5-2.5 2.5 2.5 0 0 0-2.5-2.5zm4.5 0v5h5v-5h-5zm-6 6v6h3v-6h-3zm8 0-3 6h6l-3-6z" fill="currentColor"/>
</svg>

<svg xmlns="http://www.w3.org/2000/svg" viewBox="0 0 16 16">
  <defs id="defs3051">
    <style type="text/css" id="current-color-scheme">
      .ColorScheme-Text {
        color:#363636;
      }
      </style>
  </defs>
 <path 
     style="fill:currentColor;fill-opacity:1;stroke:none" 
     d="M 4.5 2 A 2.5 2.5 0 0 0 2 4.5 A 2.5 2.5 0 0 0 4.5 7 A 2.5 2.5 0 0 0 7 4.5 A 2.5 2.5 0 0 0 4.5 2 z M 9 2 L 9 7 L 14 7 L 14 2 L 9 2 z M 3 8 L 3 14 L 6 14 L 6 8 L 3 8 z M 11 8 L 8 14 L 14 14 L 11 8 z "
     class="ColorScheme-Text"/>
</svg>
